X:1
T:Pattaya, CMD
T:Pattaya, CMD
T:Leslie G. Park, 1912
T:Public Domain Courtesy of the Cyber Hymnal™
C:Leslie G. Park, 1912
Z:Public Domain
Z:Courtesy of the Cyber Hymnal™
%%score ( 1 2 ) ( 3 4 )
L:1/8
Q:1/4=110
M:4/4
K:Eb
V:1 treble 
V:2 treble 
V:3 bass 
V:4 bass 
V:1
 ([EG][FA]) | [GB]2 [Ac]2 [GB]2 [Ac]2 | [Ge]2 [Ae]2 [Ge]2 [GB]2 | [Ac]2 [Ac]2 [Ae]2 [Ac]2 | %4
 [GB]6 ([EG][FA]) | [GB]2 [Ac]2 [GB]2 [Ac]2 | [Ge]2 [Ae]2 [Ge]2 (EF) | [EG]2 [DF]2 E2 [DF]2 | %8
 E6 ([EG][FA]) | [GB]6 [Ge]2 | [Fd]6 [EG]2 | [FA]6 [Ac]2 [GB]6 [Ge]2 | [Fd]2 [Fc]2 [F=A]2 [Fc]2 | %13
 [FB]6 ([EG][FA]) | [GB]2 [Ac]2 [GB]2 [Ac]2 | [Ge]2 [Ae]2 [Ge]2 (EF) | [EG]2 [DF]2 E2 [DF]2 | %17
 E6 x2 |] x6 |] %19
V:2
 x2 | x8 | x8 | x8 | x8 | x8 | x6 E2 | x4 E2 x2 | E6 x2 | x8 | x8 | x16 | x8 | x8 | x8 | x6 E2 | %16
 x4 E2 x2 | E6 x2 |] x6 |] %19
V:3
 [E,B,]2 | [E,E]2 [E,E]2 [E,E]2 [E,E]2 | [E,B,]2 [E,C]2 [E,B,]2 [E,E]2 | %3
 [A,,E]2 [A,,E]2 [A,,C]2 [A,,E]2 | [E,E]6 [E,B,]2 | [E,E]2 [E,E]2 [E,E]2 [E,E]2 | %6
 [E,B,]2 [E,C]2 [E,B,]2 (G,A,) | [B,,B,]2 [B,,A,]2 [B,,G,]2 [B,,A,]2 | [E,G,]6 [E,B,]2 | %9
 ([E,E]2 [E,E]2 [E,E]2) [E,B,]2 | ([F,B,]2 [B,,B,]2 [B,,B,]2) [B,,B,]2 | %11
 ([B,,B,]2 [B,,B,]2 [B,,B,]2) [B,,B,]2 x8 | ([E,B,]2 [E,B,]2 [E,B,]2) [E,B,]2 | %13
 [F,B,]2 [F,=A,]2 [F,C]2 [F,A,]2 | [D,B,]6 [E,B,]2 | [E,E]2 [E,E]2 [E,E]2 [E,E]2 | %16
 [E,B,]2 [E,C]2 [E,B,]2 (G,A,) | [B,,B,]2 [B,,A,]2 [B,,G,]2 [B,,A,]2 |] [E,G,]6 |] %19
V:4
 x2 | x8 | x8 | x8 | x8 | x8 | x6 E,2 | x8 | x8 | x8 | x8 | x16 | x8 | x8 | x8 | x8 | x6 E,2 | %17
 x8 |] x6 |] %19

